src/assets/images/eyes/disguise.svg

<svg width="72" height="72" viewBox="0 0 36 36" xmlns="http://www.w3.org/2000/svg" fill-rule="evenodd" clip-rule="evenodd" stroke-linejoin="round" stroke-miterlimit="2"><path d="M28.844 25.39l-4.91-1.456c.004-.051-11.873-.051-11.868 0L7.155 25.39c-.791.236-1.25 1.092-1.023 1.912a1.5 1.5 0 001.432 1.122c.135 0 .274-.02.411-.059l2.878-.853a1.582 1.582 0 00-.149 1.604c.261.542.788.855 1.335.855.223 0 .451-.053.665-.163l2.35-1.219c.054.505.318 1.072.788 1.315.214.11.442.163.665.163.547 0 1.074-.409 1.335-.951L18 28.79l.157.326c.261.542.788.951 1.335.951.224 0 .451-.053.665-.163.47-.243.735-.811.789-1.315l2.35 1.219c.214.11.441.163.665.163.547 0 1.073-.313 1.335-.855a1.587 1.587 0 00-.148-1.604l2.878.853c.137.039.274.059.411.059a1.5 1.5 0 001.432-1.122c.226-.82-.233-1.676-1.025-1.912z" fill="#292f33" fill-rule="nonzero"/><path d="M24 23.6c0-.994-1.254-2.6-2.8-2.6l-.023.001C20.977 17.3 19.489 11.8 18 11.8c-1.463 0-2.924 5.477-3.165 9.202L14.8 21c-1.546 0-2.8 1.606-2.8 2.6 0 .93 2.103 1.346 3.684 2.051.505.438 1.253.549 2.316.549.901 0 1.577-.107 2.069-.432C21.668 24.989 24 24.58 24 23.6z" fill="#ffac33" fill-rule="nonzero"/><path d="M21.2 23.8c-.218.039.055-.4.055-1.489 0-.511-.055-.911-.055-1.311.4 0 .842 0 .842 1.169 0 .663-.624 1.592-.842 1.631zm-6.443 0c.218.039-.055-.4-.055-1.489 0-.511.055-.911.055-1.311-.4 0-.842 0-.842 1.169.001.663.625 1.592.842 1.631z" fill="#c1694f" fill-rule="nonzero"/><path d="M14.403 24.351c-.622-.181-1.203-.081-1.481.203.721.355 1.739.66 2.631 1.043l.002-.002c.134-.462-.381-1.02-1.152-1.244zm7.194 0c-.771.225-1.286.782-1.151 1.244l.004.005c.891-.383 1.909-.689 2.63-1.044-.278-.286-.86-.387-1.483-.205z" fill="#662113" fill-rule="nonzero"/><path d="M34.808 9.627c-.171-.166-1.267.274-2.376-.291-2.288-1.166-8.07-2.291-11.834.376-.403.285-2.087.333-2.558.313-.471.021-2.155-.027-2.558-.313-3.763-2.667-9.545-1.542-11.833-.376-1.109.565-2.205.125-2.376.291-.247.239-.247 1.196.001 1.436.246.239 1.477.515 1.722 1.232.247.718.249 4.958 2.213 6.424 1.839 1.372 6.129 1.785 8.848.238 2.372-1.349 2.289-4.189 2.724-5.881.155-.603.592-.907 1.26-.907s1.105.304 1.26.907c.435 1.691.351 4.532 2.724 5.881 2.719 1.546 7.009 1.133 8.847-.238 1.965-1.465 1.967-5.706 2.213-6.424.245-.717 1.476-.994 1.722-1.232.248-.24.249-1.197.001-1.436zm-20.194 3.65c-.077 1.105-.274 3.227-1.597 3.98-.811.462-1.868.743-2.974.743h-.001c-1.225 0-2.923-.347-3.587-.842-.83-.619-1.146-3.167-1.265-4.12-.076-.607-.28-2.09.388-2.318 1.06-.361 2.539-.643 4.052-.643.693 0 3.021.043 4.155.741 1.005.617.872 1.851.829 2.459zm16.278-.253c-.119.954-.435 3.515-1.265 4.134-.664.495-2.362.842-3.587.842h-.001c-1.107 0-2.163-.281-2.975-.743-1.323-.752-1.52-2.861-1.597-3.966-.042-.608-.176-1.851.829-2.468 1.135-.698 3.462-.746 4.155-.746 1.513 0 2.991.277 4.052.638.668.228.465 1.702.389 2.309z" fill="#292f33" fill-rule="nonzero"/><path d="M14.337 10.19s-.06-3.214-1.31-4.226c-1.316-1.065-2.381.595-2.381.595s-.252-2.143-1.68-1.964c-1.428.179-1.369 1.548-1.369 1.548s-.82-1.845-2.381-1.19c-1.518.637-.76 2.024-.76 2.024s-1.145-.41-1.666.416c-.715 1.131.998 2.024.998 2.024s3.571-.833 5.357-.774c1.786.059 5.192 1.547 5.192 1.547zm7.326 0s.06-3.214 1.31-4.226c1.316-1.065 2.381.595 2.381.595s.252-2.143 1.68-1.964c1.429.179 1.369 1.548 1.369 1.548s.82-1.845 2.381-1.19c1.518.637.76 2.024.76 2.024s1.145-.409 1.667.417c.714 1.131-.998 2.024-.998 2.024s-3.571-.833-5.357-.774c-1.787.058-5.193 1.546-5.193 1.546z" fill="#292f33" fill-rule="nonzero"/></svg>

<svg width="72" height="72" viewBox="0 0 36 36" version="1.1" xmlns="http://www.w3.org/2000/svg"
    xmlns:xlink="http://www.w3.org/1999/xlink" xml:space="preserve" xmlns:serif="http://www.serif.com/"
    style="fill-rule:evenodd;clip-rule:evenodd;stroke-linejoin:round;stroke-miterlimit:2;">
    <path
        d="M28.844,25.39L23.934,23.934C23.938,23.883 12.061,23.883 12.066,23.934L7.155,25.39C6.364,25.626 5.905,26.482 6.132,27.302C6.319,27.982 6.916,28.424 7.564,28.424C7.699,28.424 7.838,28.404 7.975,28.365L10.853,27.512C10.531,27.965 10.444,28.577 10.704,29.116C10.965,29.658 11.492,29.971 12.039,29.971C12.262,29.971 12.49,29.918 12.704,29.808L15.054,28.589C15.108,29.094 15.372,29.661 15.842,29.904C16.056,30.014 16.284,30.067 16.507,30.067C17.054,30.067 17.581,29.658 17.842,29.116L18,28.79L18.157,29.116C18.418,29.658 18.945,30.067 19.492,30.067C19.716,30.067 19.943,30.014 20.157,29.904C20.627,29.661 20.892,29.093 20.946,28.589L23.296,29.808C23.51,29.918 23.737,29.971 23.961,29.971C24.508,29.971 25.034,29.658 25.296,29.116C25.555,28.577 25.469,27.965 25.148,27.512L28.026,28.365C28.163,28.404 28.3,28.424 28.437,28.424C29.085,28.424 29.682,27.981 29.869,27.302C30.095,26.482 29.636,25.626 28.844,25.39Z"
        style="fill:rgb(41,47,51);fill-rule:nonzero;" />
    <path
        d="M24,23.6C24,22.606 22.746,21 21.2,21L21.177,21.001C20.977,17.3 19.489,11.8 18,11.8C16.537,11.8 15.076,17.277 14.835,21.002L14.8,21C13.254,21 12,22.606 12,23.6C12,24.53 14.103,24.946 15.684,25.651C16.189,26.089 16.937,26.2 18,26.2C18.901,26.2 19.577,26.093 20.069,25.768C21.668,24.989 24,24.58 24,23.6Z"
        style="fill:rgb(255,172,51);fill-rule:nonzero;" />
    <path
        d="M21.2,23.8C20.982,23.839 21.255,23.4 21.255,22.311C21.255,21.8 21.2,21.4 21.2,21C21.6,21 22.042,21 22.042,22.169C22.042,22.832 21.418,23.761 21.2,23.8ZM14.757,23.8C14.975,23.839 14.702,23.4 14.702,22.311C14.702,21.8 14.757,21.4 14.757,21C14.357,21 13.915,21 13.915,22.169C13.916,22.832 14.54,23.761 14.757,23.8Z"
        style="fill:rgb(193,105,79);fill-rule:nonzero;" />
    <path
        d="M14.403,24.351C13.781,24.17 13.2,24.27 12.922,24.554C13.643,24.909 14.661,25.214 15.553,25.597L15.555,25.595C15.689,25.133 15.174,24.575 14.403,24.351ZM21.597,24.351C20.826,24.576 20.311,25.133 20.446,25.595L20.45,25.6C21.341,25.217 22.359,24.911 23.08,24.556C22.802,24.27 22.22,24.169 21.597,24.351Z"
        style="fill:rgb(102,33,19);fill-rule:nonzero;" />
    <path
        d="M34.808,9.627C34.637,9.461 33.541,9.901 32.432,9.336C30.144,8.17 24.362,7.045 20.598,9.712C20.195,9.997 18.511,10.045 18.04,10.025C17.569,10.046 15.885,9.998 15.482,9.712C11.719,7.045 5.937,8.17 3.649,9.336C2.54,9.901 1.444,9.461 1.273,9.627C1.026,9.866 1.026,10.823 1.274,11.063C1.52,11.302 2.751,11.578 2.996,12.295C3.243,13.013 3.245,17.253 5.209,18.719C7.048,20.091 11.338,20.504 14.057,18.957C16.429,17.608 16.346,14.768 16.781,13.076C16.936,12.473 17.373,12.169 18.041,12.169C18.709,12.169 19.146,12.473 19.301,13.076C19.736,14.767 19.652,17.608 22.025,18.957C24.744,20.503 29.034,20.09 30.872,18.719C32.837,17.254 32.839,13.013 33.085,12.295C33.33,11.578 34.561,11.301 34.807,11.063C35.055,10.823 35.056,9.866 34.808,9.627ZM14.614,13.277C14.537,14.382 14.34,16.504 13.017,17.257C12.206,17.719 11.149,18 10.043,18L10.042,18C8.817,18 7.119,17.653 6.455,17.158C5.625,16.539 5.309,13.991 5.19,13.038C5.114,12.431 4.91,10.948 5.578,10.72C6.638,10.359 8.117,10.077 9.63,10.077C10.323,10.077 12.651,10.12 13.785,10.818C14.79,11.435 14.657,12.669 14.614,13.277ZM30.892,13.024C30.773,13.978 30.457,16.539 29.627,17.158C28.963,17.653 27.265,18 26.04,18L26.039,18C24.932,18 23.876,17.719 23.064,17.257C21.741,16.505 21.544,14.396 21.467,13.291C21.425,12.683 21.291,11.44 22.296,10.823C23.431,10.125 25.758,10.077 26.451,10.077C27.964,10.077 29.442,10.354 30.503,10.715C31.171,10.943 30.968,12.417 30.892,13.024Z"
        style="fill:rgb(41,47,51);fill-rule:nonzero;" />
    <path
        d="M14.337,10.19C14.337,10.19 14.277,6.976 13.027,5.964C11.711,4.899 10.646,6.559 10.646,6.559C10.646,6.559 10.394,4.416 8.966,4.595C7.538,4.774 7.597,6.143 7.597,6.143C7.597,6.143 6.777,4.298 5.216,4.953C3.698,5.59 4.456,6.977 4.456,6.977C4.456,6.977 3.311,6.567 2.79,7.393C2.075,8.524 3.788,9.417 3.788,9.417C3.788,9.417 7.359,8.584 9.145,8.643C10.931,8.702 14.337,10.19 14.337,10.19ZM21.663,10.19C21.663,10.19 21.723,6.976 22.973,5.964C24.289,4.899 25.354,6.559 25.354,6.559C25.354,6.559 25.606,4.416 27.034,4.595C28.463,4.774 28.403,6.143 28.403,6.143C28.403,6.143 29.223,4.298 30.784,4.953C32.302,5.59 31.544,6.977 31.544,6.977C31.544,6.977 32.689,6.568 33.211,7.394C33.925,8.525 32.213,9.418 32.213,9.418C32.213,9.418 28.642,8.585 26.856,8.644C25.069,8.702 21.663,10.19 21.663,10.19Z"
        style="fill:rgb(41,47,51);fill-rule:nonzero;" />
</svg>
